images/5459458.svg

<?xml version="1.0" encoding="UTF-8"?>
<svg xmlns="http://www.w3.org/2000/svg" xmlns:xlink="http://www.w3.org/1999/xlink" width="300pt" height="300pt" viewBox="0 0 300 300" version="1.1">
<defs>
<g>
<symbol overflow="visible" id="glyph0-0">
<path style="stroke:none;" d="M 0.453125 1.59375 L 0.453125 -6.34375 L 4.953125 -6.34375 L 4.953125 1.59375 Z M 0.953125 1.09375 L 4.453125 1.09375 L 4.453125 -5.84375 L 0.953125 -5.84375 Z M 0.953125 1.09375 "/>
</symbol>
<symbol overflow="visible" id="glyph0-1">
<path style="stroke:none;" d="M 0.890625 -6.5625 L 2.078125 -6.5625 L 4.984375 -1.078125 L 4.984375 -6.5625 L 5.84375 -6.5625 L 5.84375 0 L 4.65625 0 L 1.75 -5.484375 L 1.75 0 L 0.890625 0 Z M 0.890625 -6.5625 "/>
</symbol>
<symbol overflow="visible" id="glyph0-2">
<path style="stroke:none;" d="M 3.546875 -5.953125 C 2.898438 -5.953125 2.382812 -5.710938 2 -5.234375 C 1.625 -4.753906 1.4375 -4.101562 1.4375 -3.28125 C 1.4375 -2.445312 1.625 -1.789062 2 -1.3125 C 2.382812 -0.832031 2.898438 -0.59375 3.546875 -0.59375 C 4.191406 -0.59375 4.703125 -0.832031 5.078125 -1.3125 C 5.453125 -1.789062 5.640625 -2.445312 5.640625 -3.28125 C 5.640625 -4.101562 5.453125 -4.753906 5.078125 -5.234375 C 4.703125 -5.710938 4.191406 -5.953125 3.546875 -5.953125 Z M 3.546875 -6.6875 C 4.460938 -6.6875 5.195312 -6.375 5.75 -5.75 C 6.300781 -5.132812 6.578125 -4.3125 6.578125 -3.28125 C 6.578125 -2.238281 6.300781 -1.410156 5.75 -0.796875 C 5.195312 -0.179688 4.460938 0.125 3.546875 0.125 C 2.617188 0.125 1.878906 -0.179688 1.328125 -0.796875 C 0.773438 -1.410156 0.5 -2.238281 0.5 -3.28125 C 0.5 -4.3125 0.773438 -5.132812 1.328125 -5.75 C 1.878906 -6.375 2.617188 -6.6875 3.546875 -6.6875 Z M 3.546875 -6.6875 "/>
</symbol>
</g>
</defs>
<g id="surface54325">
<rect x="0" y="0" width="300" height="300" style="fill:rgb(100%,100%,100%);fill-opacity:1;stroke:none;"/>
<path style="fill:none;stroke-width:1.2;stroke-linecap:butt;stroke-linejoin:miter;stroke:rgb(0%,0%,0%);stroke-opacity:1;stroke-miterlimit:10;" d="M 35.25 191.941406 L 55.085938 179.464844 "/>
<path style="fill:none;stroke-width:1.2;stroke-linecap:butt;stroke-linejoin:miter;stroke:rgb(0%,0%,0%);stroke-opacity:1;stroke-miterlimit:10;" d="M 55.085938 179.464844 L 75.808594 190.402344 "/>
<path style="fill:none;stroke-width:1.2;stroke-linecap:butt;stroke-linejoin:miter;stroke:rgb(0%,0%,0%);stroke-opacity:1;stroke-miterlimit:10;" d="M 75.808594 190.402344 L 95.644531 177.925781 "/>
<path style="fill:none;stroke-width:1.2;stroke-linecap:butt;stroke-linejoin:miter;stroke:rgb(0%,0%,0%);stroke-opacity:1;stroke-miterlimit:10;" d="M 95.644531 177.925781 L 117.402344 186.636719 "/>
<path style="fill:none;stroke-width:1.2;stroke-linecap:butt;stroke-linejoin:miter;stroke:rgb(0%,0%,0%);stroke-opacity:1;stroke-miterlimit:10;" d="M 99.871094 173.679688 L 117.277344 180.648438 "/>
<path style="fill:none;stroke-width:1.2;stroke-linecap:butt;stroke-linejoin:miter;stroke:rgb(0%,0%,100%);stroke-opacity:1;stroke-miterlimit:10;" d="M 97.210938 154.542969 L 96.429688 166.234375 "/>
<path style="fill:none;stroke-width:1.2;stroke-linecap:butt;stroke-linejoin:miter;stroke:rgb(0%,0%,0%);stroke-opacity:1;stroke-miterlimit:10;" d="M 96.429688 166.234375 L 95.644531 177.925781 "/>
<path style="fill:none;stroke-width:1.2;stroke-linecap:butt;stroke-linejoin:miter;stroke:rgb(0%,0%,0%);stroke-opacity:1;stroke-miterlimit:10;" d="M 117.402344 186.636719 L 132.410156 168.640625 "/>
<path style="fill:none;stroke-width:1.2;stroke-linecap:butt;stroke-linejoin:miter;stroke:rgb(0%,0%,0%);stroke-opacity:1;stroke-miterlimit:10;" d="M 132.410156 168.640625 L 119.929688 148.804688 "/>
<path style="fill:none;stroke-width:1.2;stroke-linecap:butt;stroke-linejoin:miter;stroke:rgb(0%,0%,0%);stroke-opacity:1;stroke-miterlimit:10;" d="M 135.828125 163.722656 L 125.847656 147.851562 "/>
<path style="fill:none;stroke-width:1.2;stroke-linecap:butt;stroke-linejoin:miter;stroke:rgb(0%,0%,0%);stroke-opacity:1;stroke-miterlimit:10;" d="M 155.132812 162.902344 L 132.410156 168.640625 "/>
<path style="fill:none;stroke-width:1.2;stroke-linecap:butt;stroke-linejoin:miter;stroke:rgb(0%,0%,0%);stroke-opacity:1;stroke-miterlimit:10;" d="M 119.929688 148.804688 L 108.570312 151.675781 "/>
<path style="fill:none;stroke-width:1.2;stroke-linecap:butt;stroke-linejoin:miter;stroke:rgb(0%,0%,100%);stroke-opacity:1;stroke-miterlimit:10;" d="M 108.570312 151.675781 L 97.210938 154.542969 "/>
<path style="fill:none;stroke-width:1.2;stroke-linecap:butt;stroke-linejoin:miter;stroke:rgb(0%,0%,0%);stroke-opacity:1;stroke-miterlimit:10;" d="M 119.929688 148.804688 L 134.941406 130.808594 "/>
<path style="fill:none;stroke-width:1.2;stroke-linecap:butt;stroke-linejoin:miter;stroke:rgb(0%,0%,100%);stroke-opacity:1;stroke-miterlimit:10;" d="M 97.210938 154.542969 L 88.210938 147.039062 "/>
<path style="fill:none;stroke-width:1.2;stroke-linecap:butt;stroke-linejoin:miter;stroke:rgb(0%,0%,0%);stroke-opacity:1;stroke-miterlimit:10;" d="M 88.210938 147.039062 L 79.214844 139.535156 "/>
<path style=" stroke:none;fill-rule:nonzero;fill:rgb(100%,100%,100%);fill-opacity:1;" d="M 94.210938 149.042969 L 101.210938 149.042969 L 101.210938 160.042969 L 94.210938 160.042969 Z M 94.210938 149.042969 "/>
<g style="fill:rgb(0%,0%,100%);fill-opacity:1;">
  <use xlink:href="#glyph0-1" x="94.210938" y="157.706055"/>
</g>
<path style="fill:none;stroke-width:1.2;stroke-linecap:butt;stroke-linejoin:miter;stroke:rgb(0%,0%,0%);stroke-opacity:1;stroke-miterlimit:10;" d="M 79.214844 139.535156 L 83.210938 116.445312 "/>
<path style="fill:none;stroke-width:1.2;stroke-linecap:butt;stroke-linejoin:miter;stroke:rgb(0%,0%,0%);stroke-opacity:1;stroke-miterlimit:10;" d="M 83.210938 116.445312 L 66.882812 99.636719 "/>
<path style="fill:none;stroke-width:1.2;stroke-linecap:butt;stroke-linejoin:miter;stroke:rgb(0%,0%,0%);stroke-opacity:1;stroke-miterlimit:10;" d="M 85.535156 110.921875 L 72.46875 97.472656 "/>
<path style="fill:none;stroke-width:1.2;stroke-linecap:butt;stroke-linejoin:miter;stroke:rgb(100%,0%,0%);stroke-opacity:1;stroke-miterlimit:10;" d="M 104.246094 106.105469 L 93.726562 111.273438 "/>
<path style="fill:none;stroke-width:1.2;stroke-linecap:butt;stroke-linejoin:miter;stroke:rgb(0%,0%,0%);stroke-opacity:1;stroke-miterlimit:10;" d="M 93.726562 111.273438 L 83.210938 116.445312 "/>
<path style="fill:none;stroke-width:1.2;stroke-linecap:butt;stroke-linejoin:miter;stroke:rgb(0%,0%,0%);stroke-opacity:1;stroke-miterlimit:10;" d="M 66.882812 99.636719 L 77.820312 78.910156 "/>
<path style="fill:none;stroke-width:1.2;stroke-linecap:butt;stroke-linejoin:miter;stroke:rgb(0%,0%,0%);stroke-opacity:1;stroke-miterlimit:10;" d="M 77.820312 78.910156 L 100.914062 82.910156 "/>
<path style="fill:none;stroke-width:1.2;stroke-linecap:butt;stroke-linejoin:miter;stroke:rgb(0%,0%,0%);stroke-opacity:1;stroke-miterlimit:10;" d="M 79.191406 84.742188 L 97.664062 87.945312 "/>
<path style="fill:none;stroke-width:1.2;stroke-linecap:butt;stroke-linejoin:miter;stroke:rgb(0%,0%,0%);stroke-opacity:1;stroke-miterlimit:10;" d="M 100.914062 82.910156 L 102.578125 94.507812 "/>
<path style="fill:none;stroke-width:1.2;stroke-linecap:butt;stroke-linejoin:miter;stroke:rgb(100%,0%,0%);stroke-opacity:1;stroke-miterlimit:10;" d="M 102.578125 94.507812 L 104.246094 106.105469 "/>
<path style=" stroke:none;fill-rule:nonzero;fill:rgb(100%,100%,100%);fill-opacity:1;" d="M 100.246094 100.605469 L 108.246094 100.605469 L 108.246094 111.605469 L 100.246094 111.605469 Z M 100.246094 100.605469 "/>
<g style="fill:rgb(100%,0%,0%);fill-opacity:1;">
  <use xlink:href="#glyph0-2" x="100.246094" y="109.268555"/>
</g>
<path style="fill:none;stroke-width:1.2;stroke-linecap:butt;stroke-linejoin:miter;stroke:rgb(0%,0%,0%);stroke-opacity:1;stroke-miterlimit:10;" d="M 134.941406 130.808594 L 156.695312 139.519531 "/>
<path style="fill:none;stroke-width:1.2;stroke-linecap:butt;stroke-linejoin:miter;stroke:rgb(0%,0%,0%);stroke-opacity:1;stroke-miterlimit:10;" d="M 134.941406 130.808594 L 129.203125 108.085938 "/>
<path style="fill:none;stroke-width:1.2;stroke-linecap:butt;stroke-linejoin:miter;stroke:rgb(0%,0%,0%);stroke-opacity:1;stroke-miterlimit:10;" d="M 156.695312 139.519531 L 155.132812 162.902344 "/>
<path style="fill:none;stroke-width:1.2;stroke-linecap:butt;stroke-linejoin:miter;stroke:rgb(0%,0%,0%);stroke-opacity:1;stroke-miterlimit:10;" d="M 179.417969 133.78125 L 156.695312 139.519531 "/>
<path style="fill:none;stroke-width:1.2;stroke-linecap:butt;stroke-linejoin:miter;stroke:rgb(0%,0%,0%);stroke-opacity:1;stroke-miterlimit:10;" d="M 155.132812 162.902344 L 176.886719 171.617188 "/>
<path style="fill:none;stroke-width:1.2;stroke-linecap:butt;stroke-linejoin:miter;stroke:rgb(0%,0%,0%);stroke-opacity:1;stroke-miterlimit:10;" d="M 176.886719 171.617188 L 184.390625 162.617188 "/>
<path style="fill:none;stroke-width:1.2;stroke-linecap:butt;stroke-linejoin:miter;stroke:rgb(0%,0%,100%);stroke-opacity:1;stroke-miterlimit:10;" d="M 184.390625 162.617188 L 191.894531 153.617188 "/>
<path style="fill:none;stroke-width:1.2;stroke-linecap:butt;stroke-linejoin:miter;stroke:rgb(0%,0%,0%);stroke-opacity:1;stroke-miterlimit:10;" d="M 176.886719 171.617188 L 165.945312 192.339844 "/>
<path style="fill:none;stroke-width:1.2;stroke-linecap:butt;stroke-linejoin:miter;stroke:rgb(0%,0%,0%);stroke-opacity:1;stroke-miterlimit:10;" d="M 176.886719 171.617188 L 196.351562 184.660156 "/>
<path style="fill:none;stroke-width:1.2;stroke-linecap:butt;stroke-linejoin:miter;stroke:rgb(0%,0%,100%);stroke-opacity:1;stroke-miterlimit:10;" d="M 191.894531 153.617188 L 185.65625 143.699219 "/>
<path style="fill:none;stroke-width:1.2;stroke-linecap:butt;stroke-linejoin:miter;stroke:rgb(0%,0%,0%);stroke-opacity:1;stroke-miterlimit:10;" d="M 185.65625 143.699219 L 179.417969 133.78125 "/>
<path style="fill:none;stroke-width:1.2;stroke-linecap:butt;stroke-linejoin:miter;stroke:rgb(0%,0%,100%);stroke-opacity:1;stroke-miterlimit:10;" d="M 191.894531 153.617188 L 203.585938 154.402344 "/>
<path style="fill:none;stroke-width:1.2;stroke-linecap:butt;stroke-linejoin:miter;stroke:rgb(0%,0%,0%);stroke-opacity:1;stroke-miterlimit:10;" d="M 203.585938 154.402344 L 215.277344 155.183594 "/>
<path style=" stroke:none;fill-rule:nonzero;fill:rgb(100%,100%,100%);fill-opacity:1;" d="M 188.894531 148.117188 L 195.894531 148.117188 L 195.894531 159.117188 L 188.894531 159.117188 Z M 188.894531 148.117188 "/>
<g style="fill:rgb(0%,0%,100%);fill-opacity:1;">
  <use xlink:href="#glyph0-1" x="188.894531" y="156.780273"/>
</g>
<path style="fill:none;stroke-width:1.2;stroke-linecap:butt;stroke-linejoin:miter;stroke:rgb(0%,0%,0%);stroke-opacity:1;stroke-miterlimit:10;" d="M 212.96875 156.691406 L 217.644531 163.839844 "/>
<path style="fill:none;stroke-width:1.2;stroke-linecap:butt;stroke-linejoin:miter;stroke:rgb(100%,0%,0%);stroke-opacity:1;stroke-miterlimit:10;" d="M 217.644531 163.839844 L 222.316406 170.992188 "/>
<path style="fill:none;stroke-width:1.2;stroke-linecap:butt;stroke-linejoin:miter;stroke:rgb(0%,0%,0%);stroke-opacity:1;stroke-miterlimit:10;" d="M 217.585938 153.675781 L 222.257812 160.824219 "/>
<path style="fill:none;stroke-width:1.2;stroke-linecap:butt;stroke-linejoin:miter;stroke:rgb(100%,0%,0%);stroke-opacity:1;stroke-miterlimit:10;" d="M 222.257812 160.824219 L 226.933594 167.972656 "/>
<path style="fill:none;stroke-width:1.2;stroke-linecap:butt;stroke-linejoin:miter;stroke:rgb(0%,0%,0%);stroke-opacity:1;stroke-miterlimit:10;" d="M 215.277344 155.183594 L 228.320312 135.714844 "/>
<path style=" stroke:none;fill-rule:nonzero;fill:rgb(100%,100%,100%);fill-opacity:1;" d="M 220.625 163.980469 L 228.625 163.980469 L 228.625 174.980469 L 220.625 174.980469 Z M 220.625 163.980469 "/>
<g style="fill:rgb(100%,0%,0%);fill-opacity:1;">
  <use xlink:href="#glyph0-2" x="220.625" y="172.643555"/>
</g>
<path style="fill:none;stroke-width:1.2;stroke-linecap:butt;stroke-linejoin:miter;stroke:rgb(0%,0%,0%);stroke-opacity:1;stroke-miterlimit:10;" d="M 228.320312 135.714844 L 251.703125 137.277344 "/>
<path style="fill:none;stroke-width:1.2;stroke-linecap:butt;stroke-linejoin:miter;stroke:rgb(0%,0%,0%);stroke-opacity:1;stroke-miterlimit:10;" d="M 231.027344 130.371094 L 249.734375 131.621094 "/>
<path style="fill:none;stroke-width:1.2;stroke-linecap:butt;stroke-linejoin:miter;stroke:rgb(0%,0%,0%);stroke-opacity:1;stroke-miterlimit:10;" d="M 217.984375 114.683594 L 228.320312 135.714844 "/>
<path style="fill:none;stroke-width:1.2;stroke-linecap:butt;stroke-linejoin:miter;stroke:rgb(0%,0%,0%);stroke-opacity:1;stroke-miterlimit:10;" d="M 251.703125 137.277344 L 264.75 117.8125 "/>
<path style="fill:none;stroke-width:1.2;stroke-linecap:butt;stroke-linejoin:miter;stroke:rgb(0%,0%,0%);stroke-opacity:1;stroke-miterlimit:10;" d="M 264.75 117.8125 L 254.414062 96.78125 "/>
<path style="fill:none;stroke-width:1.2;stroke-linecap:butt;stroke-linejoin:miter;stroke:rgb(0%,0%,0%);stroke-opacity:1;stroke-miterlimit:10;" d="M 258.769531 118.140625 L 250.5 101.316406 "/>
<path style="fill:none;stroke-width:1.2;stroke-linecap:butt;stroke-linejoin:miter;stroke:rgb(0%,0%,0%);stroke-opacity:1;stroke-miterlimit:10;" d="M 254.414062 96.78125 L 231.03125 95.214844 "/>
<path style="fill:none;stroke-width:1.2;stroke-linecap:butt;stroke-linejoin:miter;stroke:rgb(0%,0%,0%);stroke-opacity:1;stroke-miterlimit:10;" d="M 231.03125 95.214844 L 217.984375 114.683594 "/>
<path style="fill:none;stroke-width:1.2;stroke-linecap:butt;stroke-linejoin:miter;stroke:rgb(0%,0%,0%);stroke-opacity:1;stroke-miterlimit:10;" d="M 234.308594 100.230469 L 223.871094 115.804688 "/>
<path style="fill:none;stroke-width:1.2;stroke-linecap:butt;stroke-linejoin:miter;stroke:rgb(0%,0%,0%);stroke-opacity:1;stroke-miterlimit:10;" d="M 197.257812 187.265625 L 205.328125 184.460938 "/>
<path style="fill:none;stroke-width:1.2;stroke-linecap:butt;stroke-linejoin:miter;stroke:rgb(100%,0%,0%);stroke-opacity:1;stroke-miterlimit:10;" d="M 205.328125 184.460938 L 213.394531 181.65625 "/>
<path style="fill:none;stroke-width:1.2;stroke-linecap:butt;stroke-linejoin:miter;stroke:rgb(0%,0%,0%);stroke-opacity:1;stroke-miterlimit:10;" d="M 195.449219 182.058594 L 203.515625 179.253906 "/>
<path style="fill:none;stroke-width:1.2;stroke-linecap:butt;stroke-linejoin:miter;stroke:rgb(100%,0%,0%);stroke-opacity:1;stroke-miterlimit:10;" d="M 203.515625 179.253906 L 211.582031 176.445312 "/>
<path style="fill:none;stroke-width:1.2;stroke-linecap:butt;stroke-linejoin:miter;stroke:rgb(0%,0%,0%);stroke-opacity:1;stroke-miterlimit:10;" d="M 196.351562 184.660156 L 195.570312 196.351562 "/>
<path style="fill:none;stroke-width:1.2;stroke-linecap:butt;stroke-linejoin:miter;stroke:rgb(100%,0%,0%);stroke-opacity:1;stroke-miterlimit:10;" d="M 195.570312 196.351562 L 194.789062 208.042969 "/>
<path style=" stroke:none;fill-rule:nonzero;fill:rgb(100%,100%,100%);fill-opacity:1;" d="M 208.488281 173.550781 L 216.488281 173.550781 L 216.488281 184.550781 L 208.488281 184.550781 Z M 208.488281 173.550781 "/>
<g style="fill:rgb(100%,0%,0%);fill-opacity:1;">
  <use xlink:href="#glyph0-2" x="208.488281" y="182.213867"/>
</g>
<path style="fill:none;stroke-width:1.2;stroke-linecap:butt;stroke-linejoin:miter;stroke:rgb(100%,0%,0%);stroke-opacity:1;stroke-miterlimit:10;" d="M 194.789062 208.042969 L 204.523438 214.566406 "/>
<path style="fill:none;stroke-width:1.2;stroke-linecap:butt;stroke-linejoin:miter;stroke:rgb(0%,0%,0%);stroke-opacity:1;stroke-miterlimit:10;" d="M 204.523438 214.566406 L 214.257812 221.089844 "/>
<path style=" stroke:none;fill-rule:nonzero;fill:rgb(100%,100%,100%);fill-opacity:1;" d="M 190.789062 202.542969 L 198.789062 202.542969 L 198.789062 213.542969 L 190.789062 213.542969 Z M 190.789062 202.542969 "/>
<g style="fill:rgb(100%,0%,0%);fill-opacity:1;">
  <use xlink:href="#glyph0-2" x="190.789062" y="211.206055"/>
</g>
</g>
</svg>

<svg xmlns="http://www.w3.org/2000/svg" xmlns:xlink="http://www.w3.org/1999/xlink" width="300pt" height="300pt" viewBox="0 0 300 300"><defs><symbol overflow="visible"><path d="M.453 1.594v-7.938h4.5v7.938zm.5-.5h3.5v-6.938h-3.5zm0 0"/></symbol><symbol overflow="visible" id="a"><path d="M.89-6.563H2.08l2.906 5.485v-5.484h.86V0H4.656L1.75-5.484V0H.89zm0 0"/></symbol><symbol overflow="visible" id="b"><path d="M3.547-5.953c-.65 0-1.164.242-1.547.72-.375.48-.563 1.13-.563 1.952 0 .835.188 1.49.563 1.967.383.48.898.72 1.547.72.644 0 1.156-.24 1.53-.72.376-.476.564-1.132.564-1.968 0-.822-.187-1.474-.562-1.954-.375-.477-.887-.72-1.53-.72zm0-.734c.914 0 1.648.312 2.203.937.55.617.828 1.438.828 2.47 0 1.042-.277 1.87-.828 2.483-.555.617-1.29.922-2.203.922-.93 0-1.668-.305-2.22-.922C.774-1.41.5-2.237.5-3.28c0-1.033.273-1.853.828-2.47.55-.625 1.29-.938 2.22-.938zm0 0"/></symbol></defs><g><path fill="#fff" d="M0 0h300v300H0z"/><path d="M35.25 191.94l19.836-12.475M55.086 179.465l20.723 10.937M75.81 190.402l19.835-12.476M95.645 177.926l21.757 8.71M99.87 173.68l17.407 6.968" stroke-width="1.2" stroke="#000" stroke-miterlimit="10" fill="none"/><path d="M97.21 154.543l-.78 11.69" stroke-width="1.2" stroke="#00f" stroke-miterlimit="10" fill="none"/><path d="M96.43 166.234l-.785 11.692M117.402 186.637l15.008-17.996M132.41 168.64l-12.48-19.835M135.828 163.723l-9.98-15.87M155.133 162.902l-22.723 5.74M119.93 148.805l-11.36 2.87" stroke-width="1.2" stroke="#000" stroke-miterlimit="10" fill="none"/><path d="M108.57 151.676l-11.36 2.867" stroke-width="1.2" stroke="#00f" stroke-miterlimit="10" fill="none"/><path d="M119.93 148.805l15.01-17.996" stroke-width="1.2" stroke="#000" stroke-miterlimit="10" fill="none"/><path d="M97.21 154.543l-9-7.504" stroke-width="1.2" stroke="#00f" stroke-miterlimit="10" fill="none"/><path d="M88.21 147.04l-8.995-7.505" stroke-width="1.2" stroke="#000" stroke-miterlimit="10" fill="none"/><path d="M94.21 149.043h7v11h-7zm0 0" fill="#fff"/><use xlink:href="#a" x="94.211" y="157.706" fill="#00f"/><path d="M79.215 139.535l3.996-23.09M83.21 116.445L66.884 99.637M85.535 110.922L72.47 97.472" stroke-width="1.2" stroke="#000" stroke-miterlimit="10" fill="none"/><path d="M104.246 106.105l-10.52 5.168" stroke-width="1.2" stroke="#f00" stroke-miterlimit="10" fill="none"/><path d="M93.727 111.273l-10.516 5.172M66.883 99.637L77.82 78.91M77.82 78.91l23.094 4M79.19 84.742l18.474 3.203M100.914 82.91l1.664 11.598" stroke-width="1.2" stroke="#000" stroke-miterlimit="10" fill="none"/><path d="M102.578 94.508l1.668 11.597" stroke-width="1.2" stroke="#f00" stroke-miterlimit="10" fill="none"/><path d="M100.246 100.605h8v11h-8zm0 0" fill="#fff"/><use xlink:href="#b" x="100.246" y="109.269" fill="#f00"/><path d="M134.94 130.81l21.755 8.71M134.94 130.81l-5.737-22.724M156.695 139.52l-1.562 23.382M179.418 133.78l-22.723 5.74M155.133 162.902l21.754 8.715M176.887 171.617l7.504-9" stroke-width="1.2" stroke="#000" stroke-miterlimit="10" fill="none"/><path d="M184.39 162.617l7.505-9" stroke-width="1.2" stroke="#00f" stroke-miterlimit="10" fill="none"/><path d="M176.887 171.617l-10.942 20.723M176.887 171.617l19.465 13.043" stroke-width="1.2" stroke="#000" stroke-miterlimit="10" fill="none"/><path d="M191.895 153.617l-6.24-9.918" stroke-width="1.2" stroke="#00f" stroke-miterlimit="10" fill="none"/><path d="M185.656 143.7l-6.238-9.92" stroke-width="1.2" stroke="#000" stroke-miterlimit="10" fill="none"/><path d="M191.895 153.617l11.69.785" stroke-width="1.2" stroke="#00f" stroke-miterlimit="10" fill="none"/><path d="M203.586 154.402l11.69.782" stroke-width="1.2" stroke="#000" stroke-miterlimit="10" fill="none"/><path d="M188.895 148.117h7v11h-7zm0 0" fill="#fff"/><use xlink:href="#a" x="188.895" y="156.78" fill="#00f"/><path d="M212.97 156.69l4.675 7.15" stroke-width="1.2" stroke="#000" stroke-miterlimit="10" fill="none"/><path d="M217.645 163.84l4.67 7.152" stroke-width="1.2" stroke="#f00" stroke-miterlimit="10" fill="none"/><path d="M217.586 153.676l4.672 7.148" stroke-width="1.2" stroke="#000" stroke-miterlimit="10" fill="none"/><path d="M222.258 160.824l4.676 7.15" stroke-width="1.2" stroke="#f00" stroke-miterlimit="10" fill="none"/><path d="M215.277 155.184l13.043-19.47" stroke-width="1.2" stroke="#000" stroke-miterlimit="10" fill="none"/><path d="M220.625 163.98h8v11h-8zm0 0" fill="#fff"/><use xlink:href="#b" x="220.625" y="172.644" fill="#f00"/><path d="M228.32 135.715l23.383 1.562M231.027 130.37l18.707 1.25M217.984 114.684l10.336 21.03M251.703 137.277l13.047-19.464M264.75 117.813L254.414 96.78M258.77 118.14l-8.27-16.824M254.414 96.78l-23.383-1.565M231.03 95.215l-13.046 19.47M234.31 100.23l-10.44 15.575M197.258 187.266l8.07-2.805" stroke-width="1.2" stroke="#000" stroke-miterlimit="10" fill="none"/><path d="M205.328 184.46l8.067-2.804" stroke-width="1.2" stroke="#f00" stroke-miterlimit="10" fill="none"/><path d="M195.45 182.06l8.066-2.806" stroke-width="1.2" stroke="#000" stroke-miterlimit="10" fill="none"/><path d="M203.516 179.254l8.066-2.81" stroke-width="1.2" stroke="#f00" stroke-miterlimit="10" fill="none"/><path d="M196.352 184.66l-.782 11.692" stroke-width="1.2" stroke="#000" stroke-miterlimit="10" fill="none"/><path d="M195.57 196.352l-.78 11.69" stroke-width="1.2" stroke="#f00" stroke-miterlimit="10" fill="none"/><path d="M208.488 173.55h8v11h-8zm0 0" fill="#fff"/><use xlink:href="#b" x="208.488" y="182.214" fill="#f00"/><path d="M194.79 208.043l9.733 6.523" stroke-width="1.2" stroke="#f00" stroke-miterlimit="10" fill="none"/><path d="M204.523 214.566l9.735 6.524" stroke-width="1.2" stroke="#000" stroke-miterlimit="10" fill="none"/><path d="M190.79 202.543h8v11h-8zm0 0" fill="#fff"/><use xlink:href="#b" x="190.789" y="211.206" fill="#f00"/></g></svg>
